.icons/Gruvbox-Plus-Dark/apps/16/net.sf.VICE.svg

<svg width="16" height="16" version="1.1" xmlns="http://www.w3.org/2000/svg">
  <defs>
    <style type="text/css" id="current-color-scheme">.ColorScheme-Text { color:#ebdbb2; } .ColorScheme-Highlight { color:#458588; }</style>
  </defs>
  <path class="ColorScheme-Text" fill="currentColor" d="m7.418 1.284c-3.781 0-7.418 3.007-7.418 6.716s3.637 6.716 7.418 6.716c0.986-2e-3 1.959-0.213 2.854-0.619v-3.361c-0.751 0.754-1.779 1.18-2.854 1.182-2.206 0-4.565-1.754-4.565-3.918s2.359-3.918 4.565-3.918c1.074 1e-3 2.103 0.425 2.854 1.178v-3.356c-0.895-0.406-1.868-0.617-2.854-0.62zm2.854 3.976h5.728l-2.291 2.37h-3.437v-2.37zm0 5.505h5.728l-2.291-2.37h-3.437v2.341 0.029z"/>
</svg>

<svg xmlns="http://www.w3.org/2000/svg" style="isolation:isolate" width="16" height="16" viewBox="0 0 16 16">
 <defs>
  <style id="current-color-scheme" type="text/css">
   .ColorScheme-Text { color:#ebdbb2; } .ColorScheme-Highlight { color:#458588; }
  </style>
  <linearGradient id="arrongin" x1="0%" x2="0%" y1="0%" y2="100%">
   <stop offset="0%" style="stop-color:#d79921; stop-opacity:1"/>
   <stop offset="100%" style="stop-color:#b57614; stop-opacity:1"/>
  </linearGradient>
  <linearGradient id="aurora" x1="0%" x2="0%" y1="0%" y2="100%">
   <stop offset="0%" style="stop-color:#83a598; stop-opacity:1"/>
   <stop offset="100%" style="stop-color:#b16286; stop-opacity:1"/>
  </linearGradient>
  <linearGradient id="fitdance" x1="0%" x2="0%" y1="0%" y2="100%">
   <stop offset="0%" style="stop-color:#8ec07c; stop-opacity:1"/>
   <stop offset="100%" style="stop-color:#458588; stop-opacity:1"/>
  </linearGradient>
  <linearGradient id="oomox" x1="0%" x2="0%" y1="0%" y2="100%">
   <stop offset="0%" style="stop-color:#458588; stop-opacity:1"/>
   <stop offset="100%" style="stop-color:#928374; stop-opacity:1"/>
  </linearGradient>
  <linearGradient id="rainblue" x1="0%" x2="0%" y1="0%" y2="100%">
   <stop offset="0%" style="stop-color:#b8bb26; stop-opacity:1"/>
   <stop offset="100%" style="stop-color:#076678; stop-opacity:1"/>
  </linearGradient>
  <linearGradient id="sunrise" x1="0%" x2="0%" y1="0%" y2="100%">
   <stop offset="0%" style="stop-color: #fe8019; stop-opacity:1"/>
   <stop offset="100%" style="stop-color: #fabd2f; stop-opacity:1"/>
  </linearGradient>
  <linearGradient id="telinkrin" x1="0%" x2="0%" y1="0%" y2="100%">
   <stop offset="0%" style="stop-color: #83a598; stop-opacity:1"/>
   <stop offset="100%" style="stop-color: #83a598; stop-opacity:1"/>
  </linearGradient>
  <linearGradient id="60spsycho" x1="0%" x2="0%" y1="0%" y2="100%">
   <stop offset="0%" style="stop-color: #fb4934; stop-opacity:1"/>
   <stop offset="25%" style="stop-color: #fabd2f; stop-opacity:1"/>
   <stop offset="50%" style="stop-color: #fe8019; stop-opacity:1"/>
   <stop offset="100%" style="stop-color: #689d6a; stop-opacity:1"/>
  </linearGradient>
  <linearGradient id="90ssummer" x1="0%" x2="0%" y1="0%" y2="100%">
   <stop offset="0%" style="stop-color: #b16286; stop-opacity:1"/>
   <stop offset="20%" style="stop-color: #8ec07c; stop-opacity:1"/>
   <stop offset="50%" style="stop-color: #fabd2f; stop-opacity:1"/>
   <stop offset="100%" style="stop-color: #458588; stop-opacity:1"/>
  </linearGradient>
  <linearGradient id="cyberneon" x1="0%" x2="0%" y1="0%" y2="100%">
    <stop offset="0" style="stop-color:#83a598; stop-opacity:1"/>
    <stop offset="1" style="stop-color:#b16286; stop-opacity:1"/>
  </linearGradient>
  <clipPath id="_clipPath_IqHIqJgc0ZRCVWuTLlCdnpb1QA8kNTBG">
   <rect width="16" height="16"/>
  </clipPath>
 </defs>
 <g clip-path="url(#_clipPath_IqHIqJgc0ZRCVWuTLlCdnpb1QA8kNTBG)">
  <rect style="fill:currentColor" class="ColorScheme-Text" fill-opacity="0" width="16" height="16"/>
  <path style="fill:currentColor" class="ColorScheme-Text" fill-rule="evenodd" d="M 7.418 1.284 C 3.637 1.284 0 4.291 0 8 C 0 11.709 3.637 14.716 7.418 14.716 C 8.404 14.714 9.377 14.503 10.272 14.097 L 10.272 10.736 L 10.272 10.736 C 9.521 11.49 8.493 11.916 7.418 11.918 C 5.212 11.918 2.853 10.164 2.853 8 C 2.853 5.836 5.212 4.082 7.418 4.082 C 8.492 4.083 9.521 4.507 10.272 5.26 L 10.272 5.26 L 10.272 1.904 C 9.377 1.498 8.404 1.287 7.418 1.284 L 7.418 1.284 Z M 10.272 5.26 L 10.272 5.26 L 16 5.26 L 13.709 7.63 L 10.272 7.63 L 10.272 5.26 L 10.272 5.26 Z M 10.272 10.765 L 16 10.765 L 13.709 8.395 L 10.272 8.395 L 10.272 10.736 L 10.272 10.765 Z"/>
 </g>
</svg>
